_site/icons/colour_pill.svg

<svg clip-rule="evenodd" fill-rule="evenodd" height="24" stroke-linecap="round" stroke-linejoin="round" width="24" xmlns="http://www.w3.org/2000/svg"><g stroke="#000"><path d="m14.915 15.234-4.805 4.805c-1.697 1.697-4.453 1.697-6.149 0-1.697-1.696-1.697-4.452 0-6.149l4.805-4.805z" fill="#f1c40f" stroke-width=".08"/><path d="m8.766 9.085 5.124-5.124c1.697-1.697 4.453-1.697 6.149 0 1.697 1.696 1.697 4.452 0 6.149l-5.124 5.124z" fill="#e74c3c" stroke-width=".08"/><g fill="none"><path d="m20.039 3.961c1.697 1.696 1.697 4.452 0 6.149l-9.929 9.929c-1.697 1.697-4.453 1.697-6.149 0-1.697-1.696-1.697-4.452 0-6.149l9.929-9.929c1.697-1.697 4.453-1.697 6.149 0z" stroke-width="1.7"/><path d="m8.766 9.085 6.149 6.149" stroke-miterlimit="1.5" stroke-width="1.39"/></g></g></svg>

<?xml version="1.0" encoding="UTF-8" standalone="no"?><!DOCTYPE svg PUBLIC "-//W3C//DTD SVG 1.1//EN" "http://www.w3.org/Graphics/SVG/1.1/DTD/svg11.dtd"><svg width="24px" height="24px" version="1.1" xmlns="http://www.w3.org/2000/svg" xmlns:xlink="http://www.w3.org/1999/xlink" xml:space="preserve" xmlns:serif="http://www.serif.com/" style="fill-rule:evenodd;clip-rule:evenodd;stroke-linecap:round;stroke-linejoin:round;"><path d="M14.915,15.234L10.11,20.039C8.413,21.736 5.657,21.736 3.961,20.039C2.264,18.343 2.264,15.587 3.961,13.89L8.766,9.085L14.915,15.234Z" style="fill:rgb(241,196,15);stroke:black;stroke-width:0.08px;"/><path d="M8.766,9.085L13.89,3.961C15.587,2.264 18.343,2.264 20.039,3.961C21.736,5.657 21.736,8.413 20.039,10.11L14.915,15.234L8.766,9.085Z" style="fill:rgb(231,76,60);stroke:black;stroke-width:0.08px;"/><path d="M20.039,3.961C21.736,5.657 21.736,8.413 20.039,10.11L10.11,20.039C8.413,21.736 5.657,21.736 3.961,20.039C2.264,18.343 2.264,15.587 3.961,13.89L13.89,3.961C15.587,2.264 18.343,2.264 20.039,3.961Z" style="fill:none;stroke:black;stroke-width:1.7px;"/><path d="M8.766,9.085L14.915,15.234" style="fill:none;stroke:black;stroke-width:1.39px;stroke-miterlimit:1.5;"/></svg>
